X:1
T:Hellig, hellig, hellig
T:Sanctus a 3
T:Arr. Eyolf Østrem
%%score 1 2 3
L:1/8
M:4/4
K:D
V:1 treble nm="S." snm="S."
V:2 treble nm="A." snm="A."
V:3 bass nm="B." snm="B."
V:1
 A4 F4 | D4 E2 F2 | E4 D4 | D4 F2 G2 | A2 B2 A4 | d4 c2 d2 | B2 B2 A4- | A2 z2 A4 | G2 F2 E4 | %9
w: Hel- *|lig, hel- *|* lig,|hel- lig er|Her- * ren,|Gud den al-|mæg- ti- ge|_ Him-|len og jor-|
 F2 D2 F4 | G2 A2 B2 B2 | A4 A4 | F2 D2 G2 F2 | E2 F2 E2 E2 | C4 |] %15
w: den er fuld|af din her- lig-|hed. Ho-|* si- an- na|i det hø- je-|ste.|
V:2
 D4 C4 | B,4 B,2 D2- | D2 C2 D4 | D4 D2 D2 | E4 F4 | G2 F2 E2 A2 | A2 ^G2 A4- | A2 z2 E4 | %8
w: Hel- *|lig, hel- *|* * lig,|hel- lig er|Her- ren,|Gud * den al-|mæg- ti- ge|_ Him-|
 D2 C2 B,4 | C2 B,2 A,4 | D2 C2 D2 E2 | C4 F4 | D2 B,2 C2 A,2 | B,C D2 D2 C2 | D4 |] %15
w: len og jor-|den er fuld|af din her- lig-|hed Ho-|* si- an- na|i _ det hø- je-|ste.|
V:3
 F,4 A,4 | G,4 E,2 D,2 | A,4 D,4 | (D2 C2) B,2 B,2 | C4 A,4 | B,4 A,2 F,2 | E,2 E,2 A,4- | %7
w: Hel- *|lig, hel- *|* lig,|hel- * lig er|Her- ren,|Gud den al-|mæg- ti- ge|
 A,2 z2 C4 | B,2 A,2 G,4 | F,2 G,2 D,4 | B,2 A,2 G,2 G,2 | F,4 D,4 | F,2 G,2 E,2 D,2 | %13
w: _ Him-|len og jor-|den er fuld|af din her- lig-|hed Ho-|* si- an- na|
 G,A, B,2 A,2 A,2 | D,4 |] %15
w: i _ det hø- je-|ste.|

